X: 10433
M: 6/8
L: 1/8
K: D
uA !segno!|\
"^>"d2d AFD | {F}"^>"E2E FGA |\
"^>"d2d AFD | {F}"_>"E2E FGA |\
[1 Bcd efg | fed cBA !segno!:|
[2 Bcd ecA | d3 d2 ||\
ug |\
fdf agf | "^>"gab efg |\
fdf agf | ecA (.A2.g) |\
fdf agf | gab efg |\
fdf ecA |
d3 (.d.g2) |\
fdf agf | gab efg |\
agf gfe | fed efe |\
"^>"d2d AFD | {F}E2E FGA |\


